;FLAVOR:Marlin
;TIME:2641
;Filament used: 0.524477m
;Layer height: 0.1
;MINX:137.2
;MINY:87.2
;MINZ:0.3
;MAXX:182.8
;MAXY:132.8
;MAXZ:7
;Generated with Cura_SteamEngine 4.8.0-beta
M140 S60
M105
M190 S60
M104 S200
M105
M109 S200
M82 ;absolute extrusion mode
G28 X0 Y0 ; Home X Y
M375; Load Bed Leveling Grid
G1 X300 Y275 F15000 ; Move to bed center
M280 S3.0 ; Deploy probe pin
## NOTE: Adjust "ZX.XX" after G30 to be the Z-offset (in mm) between the probe and the nozzle
## This is how you adjust nozzle printing height!
G30 Z1.25 ; Move down to find bed & set Z home offset
M280 S7.0 ; Retract probe
G1 Z15.0 F600 ; move extruder up 15mm
T0; Activate Extruder 1
G92 E0
G92 E0
G1 F1500 E-6.5
;LAYER_COUNT:68
;LAYER:0
M107
G0 F3600 X138.333 Y91.318 Z0.3
;TYPE:SKIRT
G1 F1500 E0
G1 F1800 X138.925 Y90.454 E0.0197
G1 X139.063 Y90.279 E0.02389
G1 X139.583 Y89.685 E0.03874
G1 X140.16 Y89.146 E0.0536
G1 X140.789 Y88.668 E0.06846
G1 X141.463 Y88.256 E0.08332
G1 X142.175 Y87.915 E0.09817
G1 X142.936 Y87.634 E0.11343
G1 X143.694 Y87.412 E0.12828
G1 X144.47 Y87.268 E0.14313
G1 X145.501 Y87.2 E0.16257
G1 X174.501 Y87.2 E0.70807
G1 X175.29 Y87.24 E0.72293
G1 X176.268 Y87.403 E0.74158
G1 X176.483 Y87.453 E0.74573
G1 X177.242 Y87.67 E0.76058
G1 X177.975 Y87.964 E0.77544
G1 X178.675 Y88.329 E0.79029
G1 X179.546 Y88.925 E0.81014
G1 X179.721 Y89.063 E0.81433
G1 X180.315 Y89.583 E0.82918
G1 X180.854 Y90.16 E0.84404
G1 X181.332 Y90.789 E0.8589
G1 X181.744 Y91.463 E0.87376
G1 X182.085 Y92.175 E0.88861
G1 X182.366 Y92.936 E0.90387
G1 X182.588 Y93.694 E0.91872
G1 X182.732 Y94.47 E0.93357
G1 X182.8 Y95.501 E0.95301
G1 X182.8 Y124.502 E1.49853
G1 X182.76 Y125.291 E1.51339
G1 X182.595 Y126.277 E1.5322
G1 X182.545 Y126.491 E1.53633
G1 X182.327 Y127.25 E1.55118
G1 X182.033 Y127.982 E1.56602
G1 X181.667 Y128.682 E1.58088
G1 X181.075 Y129.546 E1.60058
G1 X180.937 Y129.721 E1.60478
G1 X180.417 Y130.315 E1.61963
G1 X179.84 Y130.854 E1.63448
G1 X179.211 Y131.332 E1.64934
G1 X178.537 Y131.744 E1.6642
G1 X177.825 Y132.085 E1.67905
G1 X177.064 Y132.366 E1.69431
G1 X176.306 Y132.588 E1.70916
G1 X175.53 Y132.732 E1.72401
G1 X174.499 Y132.8 E1.74345
G1 X145.491 Y132.799 E2.2891
G1 X144.702 Y132.759 E2.30396
G1 X143.624 Y132.572 E2.32454
G1 X143.409 Y132.519 E2.32871
G1 X142.653 Y132.292 E2.34356
G1 X141.924 Y131.989 E2.35841
G1 X141.229 Y131.614 E2.37326
G1 X140.317 Y130.967 E2.3943
G1 X140.147 Y130.827 E2.39844
G1 X139.564 Y130.295 E2.41329
G1 X139.038 Y129.706 E2.42814
G1 X138.573 Y129.068 E2.44299
G1 X138.176 Y128.385 E2.45785
G1 X137.733 Y127.352 E2.47899
G1 X137.627 Y127.045 E2.4851
G1 X137.407 Y126.286 E2.49997
G1 X137.266 Y125.509 E2.51482
G1 X137.2 Y124.499 E2.53386
G1 X137.2 Y95.498 E3.07939
G1 X137.24 Y94.709 E3.09425
G1 X137.405 Y93.723 E3.11305
G1 X137.455 Y93.509 E3.11719
G1 X137.673 Y92.75 E3.13204
G1 X137.967 Y92.018 E3.14688
G1 X138.333 Y91.318 E3.16174
G0 F3600 X138.709 Y91.47
G1 F1800 X139.239 Y90.702 E3.17929
G1 X139.377 Y90.527 E3.18348
G1 X139.884 Y89.948 E3.19796
G1 X140.449 Y89.426 E3.21243
G1 X141.064 Y88.965 E3.22689
G1 X141.724 Y88.57 E3.24136
G1 X142.754 Y88.121 E3.26249
G1 X143.067 Y88.012 E3.26873
G1 X143.806 Y87.797 E3.2832
G1 X144.563 Y87.66 E3.29767
G1 X145.501 Y87.6 E3.31535
G1 X174.501 Y87.6 E3.86086
G1 X175.269 Y87.64 E3.87533
G1 X176.177 Y87.792 E3.89264
G1 X176.392 Y87.842 E3.8968
G1 X177.131 Y88.055 E3.91126
G1 X177.844 Y88.344 E3.92573
G1 X178.524 Y88.705 E3.94022
G1 X179.298 Y89.239 E3.9579
G1 X179.473 Y89.377 E3.9621
G1 X180.052 Y89.884 E3.97657
G1 X180.574 Y90.449 E3.99104
G1 X181.035 Y91.064 E4.0055
G1 X181.43 Y91.724 E4.01997
G1 X181.879 Y92.754 E4.04111
G1 X181.988 Y93.067 E4.04734
G1 X182.203 Y93.806 E4.06182
G1 X182.34 Y94.563 E4.07629
G1 X182.4 Y95.501 E4.09397
G1 X182.4 Y124.502 E4.63949
G1 X182.36 Y125.27 E4.65396
G1 X182.206 Y126.186 E4.67143
G1 X182.156 Y126.4 E4.67557
G1 X181.942 Y127.139 E4.69004
G1 X181.653 Y127.851 E4.70449
G1 X181.291 Y128.53 E4.71897
G1 X180.761 Y129.298 E4.73652
G1 X180.623 Y129.473 E4.74071
G1 X180.116 Y130.052 E4.75519
G1 X179.551 Y130.574 E4.76966
G1 X178.936 Y131.035 E4.78412
G1 X178.276 Y131.43 E4.79858
G1 X177.246 Y131.879 E4.81972
G1 X176.933 Y131.988 E4.82595
G1 X176.194 Y132.203 E4.84043
G1 X175.437 Y132.34 E4.8549
G1 X174.499 Y132.4 E4.87258
G1 X145.491 Y132.399 E5.41824
G1 X144.723 Y132.359 E5.43271
G1 X143.72 Y132.184 E5.45186
G1 X143.505 Y132.131 E5.45602
G1 X142.769 Y131.908 E5.47049
G1 X142.059 Y131.61 E5.48497
G1 X141.385 Y131.241 E5.49943
G1 X140.572 Y130.658 E5.51825
G1 X140.402 Y130.518 E5.52239
G1 X139.834 Y129.999 E5.53686
G1 X139.324 Y129.424 E5.55132
G1 X138.876 Y128.799 E5.56578
G1 X138.495 Y128.13 E5.58027
G1 X138.111 Y127.221 E5.59883
G1 X138.005 Y126.914 E5.60494
G1 X137.792 Y126.175 E5.6194
G1 X137.657 Y125.418 E5.63387
G1 X137.6 Y124.499 E5.65119
G1 X137.6 Y95.498 E6.19671
G1 X137.64 Y94.73 E6.21118
G1 X137.794 Y93.814 E6.22865
G1 X137.844 Y93.6 E6.23279
G1 X138.058 Y92.861 E6.24726
G1 X138.347 Y92.149 E6.26171
G1 X138.709 Y91.47 E6.27619
G0 F3600 X139.083 Y91.624
G1 F1800 X139.553 Y90.95 E6.29164
G1 X139.691 Y90.775 E6.29583
G1 X140.185 Y90.213 E6.30991
G1 X140.736 Y89.707 E6.32398
G1 X141.338 Y89.263 E6.33805
G1 X141.984 Y88.885 E6.35213
G1 X142.886 Y88.498 E6.37059
G1 X143.199 Y88.389 E6.37683
G1 X143.917 Y88.181 E6.39089
G1 X144.654 Y88.051 E6.40497
G1 X145.501 Y88 E6.42093
G1 X174.501 Y88 E6.96644
G1 X175.248 Y88.04 E6.98051
G1 X176.087 Y88.182 E6.99651
G1 X176.302 Y88.232 E7.00067
G1 X177.02 Y88.44 E7.01473
G1 X177.712 Y88.724 E7.0288
G1 X178.37 Y89.08 E7.04287
G1 X179.05 Y89.553 E7.05845
G1 X179.225 Y89.691 E7.06264
G1 X179.787 Y90.185 E7.07672
G1 X180.293 Y90.736 E7.09079
G1 X180.737 Y91.338 E7.10486
G1 X181.115 Y91.984 E7.11894
G1 X181.502 Y92.886 E7.1374
G1 X181.611 Y93.199 E7.14364
G1 X181.819 Y93.917 E7.1577
G1 X181.949 Y94.654 E7.17178
G1 X182 Y95.501 E7.18774
G1 X182 Y124.502 E7.73326
G1 X181.96 Y125.249 E7.74733
G1 X181.816 Y126.095 E7.76348
G1 X181.766 Y126.309 E7.76761
G1 X181.558 Y127.027 E7.78167
G1 X181.273 Y127.719 E7.79575
G1 X180.917 Y128.376 E7.80981
G1 X180.447 Y129.05 E7.82526
G1 X180.309 Y129.225 E7.82945
G1 X179.815 Y129.787 E7.84353
G1 X179.264 Y130.293 E7.8576
G1 X178.662 Y130.737 E7.87167
G1 X178.016 Y131.115 E7.88575
G1 X177.114 Y131.502 E7.90421
G1 X176.801 Y131.611 E7.91045
G1 X176.083 Y131.819 E7.92451
G1 X175.346 Y131.949 E7.93859
G1 X174.499 Y132 E7.95455
G1 X145.491 Y131.999 E8.50021
G1 X144.744 Y131.959 E8.51428
G1 X143.816 Y131.796 E8.532
G1 X143.601 Y131.743 E8.53617
G1 X142.885 Y131.525 E8.55024
G1 X142.196 Y131.232 E8.56433
G1 X141.543 Y130.868 E8.57839
G1 X140.826 Y130.35 E8.59503
G1 X140.656 Y130.21 E8.59917
G1 X140.105 Y129.704 E8.61324
G1 X139.611 Y129.142 E8.62732
G1 X139.179 Y128.531 E8.6414
G1 X138.816 Y127.877 E8.65547
G1 X138.489 Y127.091 E8.67148
G1 X138.383 Y126.784 E8.67759
G1 X138.177 Y126.064 E8.69168
G1 X138.049 Y125.327 E8.70575
G1 X138 Y124.499 E8.72135
G1 X138 Y95.498 E9.26687
G1 X138.04 Y94.751 E9.28095
G1 X138.184 Y93.905 E9.29709
G1 X138.234 Y93.691 E9.30122
G1 X138.442 Y92.973 E9.31528
G1 X138.727 Y92.281 E9.32936
G1 X139.083 Y91.624 E9.34342
G0 F3600 X139.458 Y91.779
G1 F1800 X139.868 Y91.197 E9.35681
G1 X140.006 Y91.022 E9.361
G1 X140.486 Y90.477 E9.37466
G1 X141.023 Y89.989 E9.38831
G1 X141.611 Y89.562 E9.40198
G1 X142.242 Y89.203 E9.41564
G1 X143.017 Y88.876 E9.43146
G1 X143.33 Y88.767 E9.43769
G1 X144.029 Y88.566 E9.45137
G1 X144.744 Y88.444 E9.46502
G1 X145.501 Y88.4 E9.47928
G1 X174.501 Y88.4 E10.02479
G1 X175.226 Y88.44 E10.03845
G1 X175.996 Y88.572 E10.05314
G1 X176.211 Y88.622 E10.05729
G1 X176.908 Y88.825 E10.07095
G1 X177.579 Y89.103 E10.08461
G1 X178.215 Y89.454 E10.09828
G1 X178.803 Y89.868 E10.1118
G1 X178.978 Y90.006 E10.116
G1 X179.523 Y90.486 E10.12966
G1 X180.011 Y91.023 E10.14331
G1 X180.438 Y91.611 E10.15698
G1 X180.797 Y92.242 E10.17063
G1 X181.124 Y93.017 E10.18645
G1 X181.233 Y93.33 E10.19269
G1 X181.434 Y94.029 E10.20637
G1 X181.556 Y94.744 E10.22001
G1 X181.6 Y95.501 E10.23428
G1 X181.6 Y124.502 E10.7798
G1 X181.56 Y125.227 E10.79346
G1 X181.427 Y126.004 E10.80829
G1 X181.377 Y126.218 E10.81242
G1 X181.173 Y126.915 E10.82608
G1 X180.894 Y127.585 E10.83974
G1 X180.542 Y128.221 E10.85341
G1 X180.132 Y128.803 E10.8668
G1 X179.994 Y128.978 E10.87099
G1 X179.514 Y129.523 E10.88466
G1 X178.977 Y130.011 E10.8983
G1 X178.389 Y130.438 E10.91197
G1 X177.758 Y130.797 E10.92563
G1 X176.983 Y131.124 E10.94145
G1 X176.67 Y131.233 E10.94769
G1 X175.971 Y131.434 E10.96137
G1 X175.256 Y131.556 E10.97501
G1 X174.499 Y131.6 E10.98928
G1 X145.491 Y131.599 E11.53493
G1 X144.766 Y131.559 E11.54859
G1 X143.911 Y131.407 E11.56493
G1 X143.696 Y131.354 E11.56909
G1 X143.002 Y131.142 E11.58274
G1 X142.335 Y130.854 E11.59641
G1 X141.703 Y130.495 E11.61008
G1 X141.08 Y130.041 E11.62458
G1 X140.91 Y129.901 E11.62872
G1 X140.376 Y129.409 E11.64238
G1 X139.899 Y128.861 E11.65605
G1 X139.485 Y128.264 E11.66971
G1 X139.139 Y127.626 E11.68337
G1 X138.867 Y126.96 E11.6969
G1 X138.761 Y126.653 E11.70301
G1 X138.562 Y125.954 E11.71668
G1 X138.442 Y125.238 E11.73034
G1 X138.4 Y124.499 E11.74426
G1 X138.4 Y95.498 E12.28978
G1 X138.44 Y94.773 E12.30344
G1 X138.573 Y93.996 E12.31827
G1 X138.623 Y93.782 E12.3224
G1 X138.827 Y93.085 E12.33607
G1 X139.106 Y92.415 E12.34972
G1 X139.458 Y91.779 E12.36339
G0 F3600 X139.831 Y91.936
G1 F1800 X140.182 Y91.445 E12.37474
G1 X140.32 Y91.27 E12.37894
G1 X140.786 Y90.743 E12.39217
G1 X141.31 Y90.272 E12.40542
G1 X141.883 Y89.863 E12.41867
G1 X142.499 Y89.523 E12.4319
G1 X143.149 Y89.254 E12.44513
G1 X143.462 Y89.145 E12.45137
G1 X144.139 Y88.951 E12.46461
G1 X144.833 Y88.836 E12.47785
G1 X145.501 Y88.8 E12.49043
G1 X174.501 Y88.8 E13.03594
G1 X175.204 Y88.84 E13.04918
G1 X175.905 Y88.961 E13.06256
G1 X176.12 Y89.011 E13.06672
G1 X176.796 Y89.209 E13.07997
G1 X177.445 Y89.483 E13.09322
G1 X178.058 Y89.828 E13.10645
G1 X178.555 Y90.182 E13.11793
G1 X178.73 Y90.32 E13.12212
G1 X179.257 Y90.786 E13.13535
G1 X179.728 Y91.31 E13.14861
G1 X180.137 Y91.883 E13.16185
G1 X180.477 Y92.499 E13.17508
G1 X180.746 Y93.149 E13.18832
G1 X180.855 Y93.462 E13.19455
G1 X181.049 Y94.139 E13.2078
G1 X181.164 Y94.833 E13.22103
G1 X181.2 Y95.501 E13.23361
G1 X181.2 Y124.502 E13.77914
G1 X181.16 Y125.205 E13.79238
G1 X181.037 Y125.913 E13.8059
G1 X180.987 Y126.127 E13.81003
G1 X180.789 Y126.802 E13.82327
G1 X180.514 Y127.45 E13.83651
G1 X180.169 Y128.064 E13.84976
G1 X179.818 Y128.555 E13.86111
G1 X179.68 Y128.73 E13.8653
G1 X179.214 Y129.257 E13.87853
G1 X178.69 Y129.728 E13.89179
G1 X178.117 Y130.137 E13.90503
G1 X177.501 Y130.477 E13.91827
G1 X176.851 Y130.746 E13.9315
G1 X176.538 Y130.855 E13.93773
G1 X175.861 Y131.049 E13.95098
G1 X175.167 Y131.164 E13.96421
G1 X174.499 Y131.2 E13.9768
G1 X145.491 Y131.199 E14.52245
G1 X144.788 Y131.159 E14.5357
G1 X144.007 Y131.019 E14.55062
G1 X143.792 Y130.966 E14.55479
G1 X143.119 Y130.759 E14.56803
G1 X142.474 Y130.477 E14.58128
G1 X141.865 Y130.124 E14.59452
G1 X141.335 Y129.732 E14.60692
G1 X141.165 Y129.592 E14.61106
G1 X140.647 Y129.114 E14.62432
G1 X140.188 Y128.581 E14.63755
G1 X139.792 Y127.999 E14.65079
G1 X139.464 Y127.376 E14.66403
G1 X139.245 Y126.829 E14.67512
G1 X139.139 Y126.522 E14.68123
G1 X138.948 Y125.845 E14.69446
G1 X138.834 Y125.15 E14.70771
G1 X138.8 Y124.499 E14.71997
G1 X138.8 Y95.498 E15.26549
G1 X138.84 Y94.795 E15.27874
G1 X138.963 Y94.087 E15.29226
G1 X139.013 Y93.873 E15.29639
G1 X139.211 Y93.198 E15.30962
G1 X139.486 Y92.55 E15.32286
G1 X139.831 Y91.936 E15.33611
G0 F3600 X140.205 Y92.096
G1 F1800 X140.634 Y91.518 E15.34965
G1 X141.086 Y91.009 E15.36246
G1 X141.595 Y90.556 E15.37527
G1 X142.153 Y90.166 E15.38808
G1 X142.753 Y89.845 E15.40088
G1 X143.281 Y89.632 E15.41159
G1 X143.594 Y89.523 E15.41782
G1 X144.249 Y89.337 E15.43063
G1 X144.921 Y89.229 E15.44344
G1 X145.501 Y89.2 E15.45436
G1 X174.501 Y89.2 E15.99987
G1 X175.181 Y89.24 E16.01268
G1 X175.815 Y89.351 E16.02479
G1 X176.03 Y89.401 E16.02894
G1 X176.683 Y89.594 E16.04175
G1 X177.309 Y89.862 E16.05456
G1 X177.899 Y90.201 E16.06736
G1 X178.307 Y90.496 E16.07683
G1 X178.482 Y90.634 E16.08102
G1 X178.991 Y91.086 E16.09382
G1 X179.444 Y91.595 E16.10664
G1 X179.834 Y92.153 E16.11945
G1 X180.155 Y92.753 E16.13225
G1 X180.368 Y93.281 E16.14296
G1 X180.477 Y93.594 E16.14919
G1 X180.663 Y94.249 E16.162
G1 X180.771 Y94.921 E16.1748
G1 X180.8 Y95.501 E16.18573
G1 X180.8 Y124.502 E16.73125
G1 X180.76 Y125.182 E16.74406
G1 X180.648 Y125.822 E16.75629
G1 X180.598 Y126.036 E16.76042
G1 X180.404 Y126.688 E16.77322
G1 X180.136 Y127.314 E16.78602
G1 X179.795 Y127.904 E16.79884
G1 X179.366 Y128.482 E16.81238
G1 X178.914 Y128.991 E16.82519
G1 X178.405 Y129.444 E16.83801
G1 X177.847 Y129.834 E16.85081
G1 X177.247 Y130.155 E16.86361
G1 X176.719 Y130.368 E16.87432
G1 X176.406 Y130.477 E16.88056
G1 X175.751 Y130.663 E16.89336
G1 X175.079 Y130.771 E16.90617
G1 X174.499 Y130.8 E16.91709
G1 X145.491 Y130.799 E17.46275
G1 X144.811 Y130.759 E17.47556
G1 X144.103 Y130.63 E17.4891
G1 X143.888 Y130.577 E17.49326
G1 X143.237 Y130.376 E17.50608
G1 X142.615 Y130.1 E17.51888
G1 X142.029 Y129.752 E17.5317
G1 X141.589 Y129.423 E17.54203
G1 X141.419 Y129.283 E17.54618
G1 X140.92 Y128.82 E17.55898
G1 X140.478 Y128.302 E17.57179
G1 X140.1 Y127.736 E17.58459
G1 X139.791 Y127.129 E17.5974
G1 X139.518 Y126.392 E17.61219
G1 X139.334 Y125.736 E17.625
G1 X139.228 Y125.064 E17.6378
G1 X139.2 Y124.499 E17.64844
G1 X139.2 Y95.498 E18.19397
G1 X139.24 Y94.818 E18.20678
G1 X139.352 Y94.178 E18.219
G1 X139.402 Y93.964 E18.22314
G1 X139.596 Y93.312 E18.23593
G1 X139.864 Y92.686 E18.24874
G1 X140.205 Y92.096 E18.26156
G0 F3600 X140.243 Y92.824
G1 F1800 X140.577 Y92.258 E18.27392
G1 X140.948 Y91.765 E18.28553
G1 X141.385 Y91.275 E18.29788
G1 X141.879 Y90.842 E18.31024
G1 X142.422 Y90.471 E18.32261
G1 X143.005 Y90.17 E18.33495
G1 X143.725 Y89.9 E18.34941
G1 X144.358 Y89.722 E18.36178
G1 X145.007 Y89.623 E18.37413
G1 X145.501 Y89.6 E18.38343
G1 X174.501 Y89.6 E18.92894
G1 X175.157 Y89.64 E18.9413
G1 X175.724 Y89.74 E18.95213
G1 X175.939 Y89.79 E18.95628
G1 X176.569 Y89.978 E18.96865
G1 X177.171 Y90.24 E18.981
G1 X177.737 Y90.574 E18.99336
G1 X178.235 Y90.948 E19.00508
G1 X178.725 Y91.385 E19.01743
G1 X179.158 Y91.879 E19.02979
G1 X179.529 Y92.422 E19.04216
G1 X179.83 Y93.005 E19.0545
G1 X180.1 Y93.725 E19.06896
G1 X180.278 Y94.358 E19.08133
G1 X180.377 Y95.007 E19.09368
G1 X180.4 Y95.501 E19.10298
G1 X180.4 Y124.502 E19.64851
G1 X180.36 Y125.158 E19.66087
G1 X180.258 Y125.731 E19.67182
G1 X180.208 Y125.945 E19.67595
G1 X180.02 Y126.574 E19.6883
G1 X179.757 Y127.176 E19.70066
G1 X179.423 Y127.742 E19.71302
G1 X179.052 Y128.235 E19.72463
G1 X178.615 Y128.725 E19.73698
G1 X178.121 Y129.158 E19.74933
G1 X177.578 Y129.529 E19.76171
G1 X176.995 Y129.83 E19.77405
G1 X176.275 Y130.1 E19.78851
G1 X175.642 Y130.278 E19.80088
G1 X174.993 Y130.377 E19.81323
G1 X174.499 Y130.4 E19.82253
G1 X145.491 Y130.399 E20.36819
G1 X144.835 Y130.359 E20.38055
G1 X144.199 Y130.242 E20.39272
G1 X143.984 Y130.189 E20.39688
G1 X143.356 Y129.993 E20.40926
G1 X142.758 Y129.723 E20.4216
G1 X142.196 Y129.382 E20.43396
G1 X141.673 Y128.974 E20.44644
G1 X141.192 Y128.527 E20.45879
G1 X140.77 Y128.024 E20.47114
G1 X140.411 Y127.474 E20.4835
G1 X140.122 Y126.884 E20.49586
G1 X139.896 Y126.261 E20.50832
G1 X139.719 Y125.629 E20.52067
G1 X139.621 Y124.979 E20.53303
G1 X139.6 Y124.499 E20.54207
G1 X139.6 Y95.498 E21.0876
G1 X139.64 Y94.842 E21.09996
G1 X139.742 Y94.269 E21.11091
G1 X139.792 Y94.055 E21.11504
G1 X139.98 Y93.426 E21.12739
G1 X140.243 Y92.824 E21.13975
G0 F3600 X140.621 Y92.964
G1 F1800 X141.124 Y92.188 E21.15714
G1 X141.262 Y92.013 E21.16133
G1 X141.684 Y91.542 E21.17323
G1 X142.162 Y91.129 E21.18511
G1 X142.688 Y90.779 E21.197
G1 X143.544 Y90.387 E21.21471
G1 X143.857 Y90.278 E21.22094
G1 X144.466 Y90.108 E21.23284
G1 X145.091 Y90.017 E21.24472
G1 X145.501 Y90 E21.25243
G1 X174.501 Y90 E21.79794
G1 X175.132 Y90.04 E21.80983
G1 X175.634 Y90.13 E21.81943
G1 X175.849 Y90.18 E21.82358
G1 X176.454 Y90.362 E21.83546
